assets/media/img/cooperation-contract.svg

<svg width="60" height="60" viewBox="0 0 60 60" fill="none" xmlns="http://www.w3.org/2000/svg">
<path fill-rule="evenodd" clip-rule="evenodd" d="M12 0H43.9519C44.0145 0 44.0746 0.0248774 44.1189 0.0691596L44.2842 0.234518C44.2851 0.235406 44.2866 0.235406 44.2875 0.234518C44.2883 0.23363 44.2898 0.23363 44.2907 0.234518L52.7184 8.66221C52.7192 8.6631 52.7192 8.66454 52.7184 8.66543C52.7175 8.66631 52.7175 8.66775 52.7184 8.66864L52.917 8.86733C52.9702 8.92044 53 8.99248 53 9.06759V55C53 57.7614 50.7614 60 48 60H12C9.23858 60 7 57.7614 7 55V5C7 2.23858 9.23858 0 12 0ZM52 10.6054C52 9.80978 51.6839 9.04672 51.1213 8.48411L44.5159 1.87868C43.9533 1.31607 43.1902 1 42.3946 1H12C9.79086 1 8 2.79086 8 5V55C8 57.2091 9.79086 59 12 59H48C50.2091 59 52 57.2091 52 55V10.6054Z" fill="#46403C"/>
<path fill-rule="evenodd" clip-rule="evenodd" d="M52 11H43C42.4477 11 42 10.5523 42 10V1H41V10C41 11.1046 41.8954 12 43 12H52L52 11Z" fill="#46403C"/>
<path d="M14 19L14.0223 19.0167C15.2344 19.9258 16.856 20.072 18.2111 19.3944V19.3944C19.3373 18.8314 20.6627 18.8314 21.7889 19.3944L22 19.5C23.259 20.1295 24.741 20.1295 26 19.5V19.5C27.259 18.8705 28.741 18.8705 30 19.5V19.5C31.259 20.1295 32.741 20.1295 34 19.5V19.5C35.259 18.8705 36.741 18.8705 38 19.5L38.2111 19.6056C39.3373 20.1686 40.6627 20.1686 41.7889 19.6056V19.6056C43.144 18.928 44.7656 19.0742 45.9777 19.9833L46 20" stroke="#46403C" stroke-linecap="round"/>
<path d="M14 24.5L14.0223 24.5167C15.2344 25.4258 16.856 25.572 18.2111 24.8944V24.8944C19.3373 24.3314 20.6627 24.3314 21.7889 24.8944L22 25C23.259 25.6295 24.741 25.6295 26 25V25C27.259 24.3705 28.741 24.3705 30 25V25C31.259 25.6295 32.741 25.6295 34 25V25C35.259 24.3705 36.741 24.3705 38 25L38.2111 25.1056C39.3373 25.6686 40.6627 25.6686 41.7889 25.1056V25.1056C43.144 24.428 44.7656 24.5742 45.9777 25.4833L46 25.5" stroke="#46403C" stroke-linecap="round"/>
<path d="M14 30.5L14.0223 30.5167C15.2344 31.4258 16.856 31.572 18.2111 30.8944V30.8944C19.3373 30.3314 20.6627 30.3314 21.7889 30.8944L22 31C23.259 31.6295 24.741 31.6295 26 31V31C27.259 30.3705 28.741 30.3705 30 31V31C31.259 31.6295 32.741 31.6295 34 31V31C35.259 30.3705 36.741 30.3705 38 31L38.2111 31.1056C39.3373 31.6686 40.6627 31.6686 41.7889 31.1056V31.1056C43.144 30.428 44.7656 30.5742 45.9777 31.4833L46 31.5" stroke="#46403C" stroke-linecap="round"/>
<path d="M14 36.5L14.0223 36.5167C15.2344 37.4258 16.856 37.572 18.2111 36.8944V36.8944C19.3373 36.3314 20.6627 36.3314 21.7889 36.8944L22.2111 37.1056C23.3373 37.6686 24.6627 37.6686 25.7889 37.1056V37.1056C27.144 36.428 28.7656 36.5742 29.9777 37.4833L30 37.5" stroke="#46403C" stroke-linecap="round"/>
<circle cx="17" cy="50" r="4.5" stroke="#46403C"/>
</svg>

<svg width="60" height="60" fill="none" xmlns="http://www.w3.org/2000/svg"><path fill-rule="evenodd" clip-rule="evenodd" d="M12 0h31.952c.063 0 .123.025.167.07l.165.165h.007l8.427 8.427v.007l.199.198a.283.283 0 01.083.2V55a5 5 0 01-5 5H12a5 5 0 01-5-5V5a5 5 0 015-5zm40 10.605a3 3 0 00-.879-2.12l-6.605-6.606A3 3 0 0042.395 1H12a4 4 0 00-4 4v50a4 4 0 004 4h36a4 4 0 004-4V10.605z" fill="#46403C"/><path fill-rule="evenodd" clip-rule="evenodd" d="M52 11h-9a1 1 0 01-1-1V1h-1v9a2 2 0 002 2h9v-1z" fill="#46403C"/><path d="M14 19l.022.017a4 4 0 004.19.377v0a4 4 0 013.577 0L22 19.5a4.47 4.47 0 004 0v0a4.472 4.472 0 014 0v0a4.47 4.47 0 004 0v0a4.472 4.472 0 014 0l.211.106a4 4 0 003.578 0v0a4 4 0 014.189.377L46 20m-32 4.5l.022.017a4 4 0 004.19.377v0a4 4 0 013.577 0L22 25a4.47 4.47 0 004 0v0a4.472 4.472 0 014 0v0a4.47 4.47 0 004 0v0a4.472 4.472 0 014 0l.211.106a4 4 0 003.578 0v0a4 4 0 014.189.377L46 25.5m-32 5l.022.017a4 4 0 004.19.377v0a4 4 0 013.577 0L22 31a4.47 4.47 0 004 0v0a4.472 4.472 0 014 0v0a4.47 4.47 0 004 0v0a4.472 4.472 0 014 0l.211.106a4 4 0 003.578 0v0a4 4 0 014.189.377L46 31.5m-32 5l.022.017a4 4 0 004.19.377v0a4 4 0 013.577 0l.422.212a4 4 0 003.578 0v0a4 4 0 014.189.377L30 37.5" stroke="#46403C" stroke-linecap="round"/><circle cx="17" cy="50" r="4.5" stroke="#46403C"/></svg>
